openframe-frontend-core/src/components/icons-v2/brand-logos/google-logo.svg

<svg width="24" height="24" viewBox="0 0 24 24" fill="none" xmlns="http://www.w3.org/2000/svg">
<path d="M21.2237 12.2222C21.2237 11.4 21.1583 10.8 21.0167 10.1778H11.8081V13.8889H17.2133C17.1044 14.8111 16.5159 16.2 15.2082 17.1333L15.1898 17.2575L18.1014 19.5573L18.3031 19.5778C20.1557 17.8333 21.2237 15.2666 21.2237 12.2222Z" fill="#4285F4"/>
<path d="M11.8077 22C14.4558 22 16.6789 21.1111 18.3027 19.5778L15.2077 17.1333C14.3795 17.7222 13.2679 18.1333 11.8077 18.1333C9.21404 18.1333 7.01272 16.3889 6.22801 13.9778L6.11299 13.9877L3.08549 16.3766L3.0459 16.4889C4.65874 19.7555 7.97166 22 11.8077 22Z" fill="#34A853"/>
<path d="M6.22827 13.9778C6.02122 13.3556 5.90139 12.6889 5.90139 12C5.90139 11.3111 6.02122 10.6445 6.21738 10.0222L6.21189 9.88973L3.14645 7.46246L3.04616 7.5111C2.38142 8.86668 2 10.3889 2 12C2 13.6111 2.38142 15.1333 3.04616 16.4889L6.22827 13.9778Z" fill="#FBBC05"/>
<path d="M11.8077 5.86664C13.6494 5.86664 14.8917 6.67775 15.6001 7.35557L18.3681 4.6C16.6681 2.98889 14.4558 2 11.8077 2C7.97166 2 4.65874 4.24443 3.0459 7.51107L6.21712 10.0222C7.01272 7.61111 9.21404 5.86664 11.8077 5.86664Z" fill="#EB4335"/>
</svg>

<svg xmlns="http://www.w3.org/2000/svg" width="24" height="24" fill="none" viewBox="0 0 24 24">
  <path fill="#4285F4" d="M21.224 12.222c0-.822-.066-1.422-.207-2.044h-9.209v3.71h5.405c-.109.923-.697 2.312-2.005 3.245l-.018.125 2.911 2.3.202.02c1.853-1.745 2.92-4.311 2.92-7.356Z"/>
  <path fill="#34A853" d="M11.808 22c2.648 0 4.87-.889 6.495-2.422l-3.095-2.445c-.829.59-1.94 1-3.4 1-2.594 0-4.795-1.744-5.58-4.155l-.115.01-3.028 2.389-.04.112C4.66 19.756 7.973 22 11.809 22Z"/>
  <path fill="#FBBC05" d="M6.228 13.978A6.265 6.265 0 0 1 5.901 12c0-.689.12-1.355.316-1.978l-.005-.132-3.066-2.428-.1.05A10.169 10.169 0 0 0 2 12c0 1.611.381 3.133 1.046 4.489l3.182-2.511Z"/>
  <path fill="#EB4335" d="M11.808 5.867c1.841 0 3.084.81 3.792 1.489L18.368 4.6c-1.7-1.611-3.912-2.6-6.56-2.6-3.836 0-7.15 2.244-8.762 5.511l3.171 2.511c.796-2.41 2.997-4.155 5.59-4.155Z"/>
</svg>
